X:1
T:Cherokee Shuffle
C:Traditional - Arranged by Paul Andry
L:1/8
M:4/4
K:D clef=treble
P:Play AABB
|:"D" F2 G2 G2 F2 |"^PART A" G2 G2 G2 G2 | B2 B2 G2 G2 | E2 E2 D2 D2 | F2 G2 G2 B2 | B2 B2 d2 d2
| z4 "Bm" B4 | B4 z4 |"G" d4 d2 d2 | B4 B2 B2 |"D" A2 B2 A4 |  F2 E2 D4
| F2 E2 D4 |"A" G2 F2 E4 |"D" D4 D2 D2
| D2 D2 D2 D2 :|
|:"G" B2 B2 B2 d2
|"^PART B" d2 d2 B2 B2 |"D" A2 B2 A4 | F2 E2 D4 |"G" B2 B2 B2 d2
| d2 d2 B4 | z4 "D"A4 | A4 z4 |"G" B2 B2 B2 d2
| d2 d2 B2 B2 |"D" A2 B2 A4 | F2 E2 D4 | F2 E2 D4 | F2 E2 D4 |"Bm" B,4 B,2 B,2
|"D" D4] D2 D2 |  F2 E2 D4 |"A" G2 F2 E4
|"D" D4 D2 D2 |  D2 D2 D2 D2 :||
